germany/municipalities/07140205.svg

<?xml version="1.0" encoding="UTF-8" standalone="no"?>
<!-- Created with Inkscape (http://www.inkscape.org/) -->
<svg
   xmlns:svg="http://www.w3.org/2000/svg"
   xmlns="http://www.w3.org/2000/svg"
   version="1.0"
   width="425.75293"
   height="462.24805"
   viewBox="0 0 425.75293 462.24805"
   id="svg5244"
   xml:space="preserve"><defs
   id="defs5281" />
	
		<g
   id="shape_Kopie">
			<path
   d="M 3.1362305,3 L 422.61621,3 L 409.99316,286.69238 C 401.21973,385.71484 323.80273,459.24805 212.87598,459.24805 C 101.94775,459.24805 24.532715,385.71387 15.758789,286.69238 L 3.1362305,3 z "
   style="fill:#ffffff"
   id="path4688_1_" />
		</g>
		<g
   id="Ebene_4">
			<g
   id="g5251">
				<path
   d="M 212.87598,459.24805 C 308.76758,459.24805 379.60742,404.29199 402.71973,325.42773 L 23.032227,325.42773 C 46.144531,404.29199 116.9834,459.24805 212.87598,459.24805 z "
   style="fill:#067f2e"
   id="path5253" />
			</g>
		</g>
		<g
   id="shape">
			<path
   d="M 3.1362305,3 L 422.61621,3 L 409.99316,286.69238 C 401.21973,385.71484 323.80273,459.24805 212.87598,459.24805 C 101.94775,459.24805 24.532715,385.71387 15.758789,286.69238 L 3.1362305,3 z "
   style="fill:none;stroke:#000000;stroke-width:6"
   id="path4688" />
		</g>
		<g
   id="Ebene_2_1_">
			<path
   d="M 165.99414,36.27832 L 193.79346,36.27832 L 193.79346,72.420898 C 193.79346,72.420898 224.96924,64.755859 262.12109,60.347656 C 293.46436,56.628906 329.06836,56.013672 353.7207,56.335449 C 354.24219,64.28125 354.25977,80.214844 354.25977,80.214844 L 326.64941,80.293457 L 326.71777,160.35645 L 349.08887,160.44824 L 343.11914,208.99023 L 308.71875,209.01172 L 302.79102,160.41211 L 321.47559,160.39453 C 321.47559,160.39453 321.45605,107.0083 321.19629,80.317383 C 303.79785,81.022949 279.66455,81.838379 257.12109,85.347656 C 223.74854,90.542969 193.79346,98.859375 193.79346,98.859375 L 193.79346,194.4082 L 248.46875,257.64258 L 256.23096,257.64258 L 256.22119,291.53027 L 103.03369,291.8418 L 103.07568,257.64258 L 112.36279,257.64258 L 165.99414,194.4082 L 165.99414,108.51563 C 165.99414,108.51563 145.2583,114.57227 123.12109,123.84766 C 100.98389,133.12402 77.445801,145.61914 72.430176,148.41797 C 72.513184,137.4082 72.093262,126.39648 72.474121,115.39062 C 84.86084,109.4707 102.18604,100.7417 119.12109,94.347656 C 143.32617,85.209961 165.99414,79.223633 165.99414,79.223633 L 165.99414,36.27832 L 165.99414,36.27832 z "
   id="path5258" />
			<path
   d="M 144.51221,257.10742 C 151.63672,249.28711 158.19141,240.87305 165.73486,233.49219 C 165.92822,241.40723 165.92432,249.32813 165.99414,257.25 C 158.83203,257.28125 151.66992,257.33887 144.51221,257.10742 z "
   style="fill:none;stroke:#f5f5fb;stroke-width:0.1;stroke-miterlimit:10"
   id="path5260" />
			<polygon
   points="144.51221,257.64258 165.99414,233.49219 165.99414,257.64258 144.51221,257.64258 "
   style="fill:#f5f5fb"
   id="polygon5262" />
			<path
   d="M 193.71289,233.6123 C 201.35156,240.90918 208.49561,248.79883 215.34424,256.94238 C 208.09619,257.17871 200.84668,257.17383 193.6001,257.18164 C 193.56445,249.32324 193.50195,241.46484 193.71289,233.6123 z "
   style="fill:none;stroke:#f5f5fb;stroke-width:0.1;stroke-miterlimit:10"
   id="path5264" />
			<polygon
   points="193.79346,233.6123 215.34424,257.64258 193.79346,257.64258 193.79346,233.6123 "
   style="fill:#f5f5fb"
   id="polygon5266" />
			<path
   d="M 178.12109,355.34766 C 179.68555,355.42188 186.99658,353.08105 194.62109,351.84766 C 210.79541,349.23047 223.19629,354.82324 230.12109,356.34766 C 230.12109,356.34766 236.81592,354.31445 239.69922,353.99219 C 250.53369,353.14551 261.94824,357.01465 272.12109,361.34766 C 273.50684,362.00781 277.12109,361.34766 280.12109,361.01465 C 283.12109,360.68164 289.85791,361.03516 295.62354,365.37305 C 302.94287,370.64258 311.47949,375.47852 315.54297,384.2998 C 316.59668,389.82324 317.86719,397.29785 313.16699,401.33203 C 307.68262,407.11328 299.58447,407.28613 292.4541,408.43164 C 259.54053,414.41504 137.05127,413.68555 115.01416,405.52832 C 112.49365,404.5 111.18555,402.72461 110.56006,400.55273 C 107.85449,391.15039 109.46143,384.41992 115.11475,378.44238 C 122.74512,370.36426 132.15186,364.63184 142.15088,360.40723 C 153.55029,355.59082 169.12451,354.91992 178.12109,355.34766 z "
   id="path5268" />
			<g
   id="g5270">
				<path
   d="M 308.74316,380.76367 C 301.45361,373.09961 292.37109,366.67187 282.33301,364.24023 C 269.49756,363.91797 261.36523,375.63867 251.0625,381.60352 C 252.07178,373.40918 254.57275,365.18945 260.07666,359.14648 C 252.94385,358.01367 245.70801,355.89453 238.4624,357.13184 C 230.61426,358.88672 223.52051,363.48438 217.68604,369.26563 C 214.31055,372.69043 207.74609,379.52051 207.74609,379.52051 C 207.74609,379.52051 208.67676,362.13867 211.39307,353.90625 C 197.97998,352.52637 184.21973,355.74219 172.95801,363.77344 C 166.27979,368.2002 152.78809,381.01465 152.78809,381.01465 C 152.78809,381.01465 152.62842,375.93945 153.37109,370.34766 C 153.95117,365.97656 155.45313,361.00977 155.5708,359.75488 C 143.5835,363.31934 132.11963,368.85547 122.2124,376.93457 C 116.43604,381.83887 110.42139,391.91895 114.47559,399.43555 C 115.25195,400.87012 115.99805,401.43164 117.28125,401.9248 C 133.1416,407.99707 150.33496,406.8457 166.90674,407.95703 C 179.51172,407.85547 192.06445,409.46777 204.66455,409.30078 C 234.93018,407.30664 265.36768,408.1123 295.521,404.30078 C 301.17432,402.90332 307.96436,402.43945 311.79541,397.10449 C 316.1875,392.14453 312.05469,385.04395 308.74316,380.76367 z "
   style="fill:#f7d849"
   id="path5272" />
				<path
   d="M 156.12109,372.34766 C 156.12109,372.34766 161.7876,366.68066 164.12109,364.68066 C 166.45459,362.68066 174.45459,358.34766 174.45459,358.34766 L 158.78809,358.68164 L 156.12109,372.34766 z "
   style="fill:#f7d849"
   id="path5274" />
			</g>
			<path
   d="M 214.32275,355.44043 C 218.02881,355.38281 221.61475,356.28711 225.04883,357.75098 C 220.29688,362.26465 215.90723,367.20605 211.12109,371.68066 C 212.11523,366.36719 213.01221,360.66211 214.32275,355.44043 z "
   style="fill:#f7d849"
   id="path5276" />
			<path
   d="M 255.82666,374.91699 C 256.33887,368.0293 263.16016,360.42871 263.16016,360.42871 C 263.16016,360.42871 269.44873,362.46191 270.14404,363.68945 C 265.4707,366.33789 259.95898,371.40234 255.82666,374.91699 z "
   style="fill:#f7d849"
   id="path5278" />
		</g>
	</svg>

<svg xmlns="http://www.w3.org/2000/svg" version="1.0" width="425.753" height="462.248" xml:space="preserve"><path d="M3.136 3h419.48l-12.623 283.692c-8.773 99.023-86.19 172.556-197.117 172.556-110.928 0-188.343-73.534-197.117-172.556L3.136 3z" style="fill:#fff"/><path d="M212.876 459.248c95.892 0 166.731-54.956 189.844-133.82H23.032c23.113 78.864 93.951 133.82 189.844 133.82z" style="fill:#067f2e"/><path d="M3.136 3h419.48l-12.623 283.692c-8.773 99.023-86.19 172.556-197.117 172.556-110.928 0-188.343-73.534-197.117-172.556L3.136 3z" style="fill:none;stroke:#000;stroke-width:6"/><path d="M165.994 36.278h27.8v36.143s31.175-7.665 68.327-12.073c31.343-3.72 66.947-4.334 91.6-4.013.521 7.946.539 23.88.539 23.88l-27.61.078.068 80.063 22.37.092-5.969 48.542-34.4.022-5.928-48.6 18.685-.017s-.02-53.387-.28-80.078c-17.398.706-41.531 1.521-64.075 5.03-33.372 5.196-63.328 13.512-63.328 13.512v95.55l54.676 63.234h7.762l-.01 33.887-153.187.312.042-34.2h9.287l53.631-63.234v-85.892s-20.736 6.056-42.873 15.332c-22.137 9.276-45.675 21.771-50.69 24.57.082-11.01-.338-22.022.043-33.027 12.387-5.92 29.712-14.65 46.647-21.043 24.205-9.138 46.873-15.124 46.873-15.124V36.278z"/><path d="M144.512 257.107c7.125-7.82 13.68-16.234 21.223-23.615.193 7.915.19 15.836.26 23.758-7.163.031-14.325.089-21.483-.143z" style="fill:none;stroke:#f5f5fb;stroke-width:.1;stroke-miterlimit:10"/><path style="fill:#f5f5fb" d="m144.512 257.643 21.482-24.15v24.15h-21.482z"/><path d="M193.713 233.612c7.639 7.297 14.783 15.187 21.631 23.33-7.248.237-14.497.232-21.744.24-.036-7.859-.098-15.717.113-23.57z" style="fill:none;stroke:#f5f5fb;stroke-width:.1;stroke-miterlimit:10"/><path style="fill:#f5f5fb" d="m193.793 233.612 21.551 24.03h-21.55v-24.03z"/><path d="M178.121 355.348c1.565.074 8.876-2.267 16.5-3.5 16.174-2.618 28.575 2.975 35.5 4.5 0 0 6.695-2.034 9.578-2.356 10.835-.846 22.25 3.023 32.422 7.356 1.386.66 5 0 8-.333s9.737.02 15.503 4.358c7.319 5.27 15.855 10.106 19.919 18.927 1.054 5.523 2.324 12.998-2.376 17.032-5.484 5.781-13.583 5.954-20.713 7.1-32.913 5.983-155.403 5.254-177.44-2.904-2.52-1.028-3.828-2.803-4.454-4.975-2.706-9.403-1.099-16.133 4.555-22.11 7.63-8.079 17.037-13.811 27.036-18.036 11.4-4.816 26.974-5.487 35.97-5.06z"/><path d="M308.743 380.764c-7.29-7.664-16.372-14.092-26.41-16.524-12.835-.322-20.968 11.399-31.27 17.364 1.009-8.195 3.51-16.415 9.014-22.458-7.133-1.132-14.369-3.251-21.615-2.014-7.848 1.755-14.941 6.352-20.776 12.134-3.375 3.424-9.94 10.255-9.94 10.255s.93-17.382 3.647-25.615c-13.413-1.38-27.173 1.836-38.435 9.867-6.678 4.427-20.17 17.242-20.17 17.242s-.16-5.076.583-10.667c.58-4.371 2.082-9.338 2.2-10.593-11.988 3.564-23.451 9.1-33.359 17.18-5.776 4.904-11.79 14.984-7.736 22.5.776 1.435 1.522 1.997 2.805 2.49 15.86 6.072 33.054 4.92 49.626 6.032 12.605-.102 25.157 1.51 37.758 1.344 30.265-1.994 60.703-1.189 90.856-5 5.653-1.398 12.443-1.862 16.274-7.197 4.392-4.96.26-12.06-3.052-16.34z" style="fill:#f7d849"/><path d="M156.121 372.348s5.667-5.667 8-7.667c2.334-2 10.334-6.333 10.334-6.333l-15.667.334-2.667 13.666zM214.323 355.44c3.706-.057 7.292.847 10.726 2.311-4.752 4.514-9.142 9.455-13.928 13.93.994-5.314 1.891-11.019 3.202-16.24zM255.827 374.917c.512-6.888 7.333-14.488 7.333-14.488s6.289 2.033 6.984 3.26c-4.673 2.649-10.185 7.713-14.317 11.228z" style="fill:#f7d849"/></svg>
